X:61
T:Angläis ur Sven Johanssons samling
T:(SM X:61)
R:Anglais
O:Åby, Tjureda, Småland
B:Småländsk Musiktradition
N:Småländsk Musiktradition X:61
N:Ca 1870
Z:Till abc Jonas Brunskog
M:2/4
L:1/16
K:G
DGBd gdBd|cBcA BdBG|DGBd gdBd|cBcA G4:|
|:g2d2 B2d2|cBce ed^cd|g2d2 B2d2|cBcA G4:|

